!!!ONB: MCCC : IAD0035_06 : Extracted Monophonic Melody
!!!COM: Dvořák, Antonín
!!!OPR: Legends
!!!OMV: 6
!!!SCT: Op.59 ; B.117 (piano duet), B.122 (orchestra)
!!!ODT: 1881///
**kern
*staff1
*clefG2
*k[f#c#g#d#]
*E:
*M4/4
16ee
8.dd#
16cc#
2dd#
=3
4cc#
4r
2r
=4
8r
16r
16ee
8.dd#
16cc#
2dd#
=5
4cc#
4r
12r
12gg#
12aa
12bb
12aa
12gg#
=6
4ff#
4aa
2gg#
=7
4gg#
4eee
4ddd#
8fff#
8aaa
=8
12r
12ddd#
12eee
12fff#
12eee
12ddd#
8.ggg#
16fff#
8.eee
16ddd#
=9
4eee
4ccc#
4ggg#
4gg#
=10
8r
16r
16eee
8.ddd#
16ccc#
2ddd#
=11
4eee
8.ccc#
16eee
4ggg#
4gg#
=12
8r
16r
16eee
12eee
12ddd#
12ccc#
2ddd#
=13
2r
2ggg#
=14
2r
2ggg#
=15
8r
16r
16cc#
8.dd#
16ee
4ee
8.ff#
16gg#
=16
8.gg#
16aa
8.bb
16aa
4gg#
4ff#
=17
4ee
8.dd#
16cc#
2dd#
=18
2r
8ggg#
8gg#
8gg#
8g#
=19
2r
8ggg#
8gg#
8gg#
8g#
=20
12r
12ee
12gg#
12ccc#
12ddd#
12eee
4eee
8.ddd#
16ccc#
=21
2bb
12r
12ccc#
12ddd
12eee
12ddd
12ccc#
=22
2bb
12r
12ccc#
12ddd
12eee
12ddd
12ccc#
=23
4bb
4aa
4gg#
4ff#
=24
4ee
8.dd#
16cc#
4b
4r
=25
1r
=26
1r
=27
4r
8b
8ee
8cc#
8ff#
8dd#
8b
=28
4g#
4r
2r
=29
1r
=30
2r
8r
8ddd#
8gg#
8ggg#
=31
8eee
8ccc#
4gg#
8r
8ddd#
8gg#
8ggg#
=32
8r
8ddd#
8gg#
8ggg#
8r
8ddd#
8gg#
8ggg#
=33
1r
=34
1r
=35
2r
4fff#
4ddd#
=36
4ggg#
4eee#
4aaa
4ggg#
=37
8ggg#[
8ggg#]
8ggg#[
8ggg#]
8ggg#[
8ggg#]
8ggg#[
8ggg#]
=38
8ggg#[
8ggg#]
8ggg#[
8ggg#]
8ggg#[
8ggg#]
8ggg#[
8ggg#]
=39
8ggg#[
8ggg#]
8ggg#[
8ggg#]
8ggg#[
8ggg#]
8ggg#[
8ggg#]
=40
8ggg#[
8ggg#]
8ggg#[
8ggg#]
8ggg#[
8ggg#]
8ggg#[
8ggg#]
=41
8ggg#[
8ggg#]
8ggg#[
8ggg#]
8ggg#[
8ggg#]
8ggg#[
8ggg#]
=42
12r
12eee
12fff#
12ggg#
12fff#
12eee
2ddd#
=43
12r
12ccc#
12ddd#
12eee
12ddd#
12ccc#
2ddd#
=44
12r
12cc#
12dd#
12ee#
12dd#
12cc#
2g#
=45
12r
12cc#
12dd#
12ee#
12dd#
12cc#
2g#
=46
4g#
4g#
4g#
4g#
=47
4g#
4g#
4g#
4g#
=48
2r
2ccc#
=49
2r
4bb#
4ccc#
=50
2r
4ggg#
8.eee#
16ccc#
=51
4.gg#
8bb#
4bb#
4ccc#
=52
4r
8r
8ccc#
2ccc#
=53
4r
8r
16r
16bb#
8.bb#
32ccc#
32ddd#
4ccc#
=54
2r
8gg#
8ggg#[
16ggg#]
16eee#
16ggg#
16ccc#
=55
4eee#
8gg#
8bb#
4bb#
4ccc#[
=56
4ccc#]
4r
4r
4aaa#
=57
2.ggg#
4fff#
=58
2.eee#
12ddd#
12aa#
12bb#
=59
2.ccc#
8.aa#
32aa#
32ccc#
=60
[2gg#
8.gg#_
32gg#]
32gg#
16ff#
16ee#
16ff#
16aa#
=61
2.ee#
12dd#
12a#
12b#
=62
2.cc#
12dd#
12a#
12b#
=63
2.cc#
12dd#
12a#
12b#
=64
2.cc#
4eee
=65
2.ddd
4ccc#
=66
2.bb
4aa
=67
2.gg
4ee#
=68
2.ee
4ff#
=69
2.ee
4ff#
=70
2.ee
4gg
=71
2.ff#
4ee
=72
2.ff#
4gg#
=73
12r
12ccc#
12ddd#
12eee
12ddd#
12ccc#
4bb#
8.ccc#
16ddd#
=74
1gg#
=75
12r
12ccc#
12ddd#
12eee
12ddd#
12ccc#
4bb#
8.ccc#
16ddd#
=76
1gg#
=77
12r
12ccc#
12ddd#
12eee
12ddd#
12ccc#
8.bb
16aa
12gg#
12bb
12eee
=78
12ddd#
12bb
12fff#
12ccc#
12aa
12fff#
12gg#
12bb#
12ddd#
12ggg#
12ggg#
12ggg#
=79
12r
12eee
12fff#
12ggg#
12fff#
12eee
12ddd
12ddd[
12ddd]
4fff#
=80
4eee
4ddd
4ccc#
4eee
=81
4ddd
4ccc#
4bb
4ddd
=82
4ccc#
4bb
4aa
4gg#
=83
4ee
4cc#
4gg#
4g#
=84
8r
16r
16ee
8.dd#
16cc#
2dd#
=85
4ee
8.cc#
16ee
4gg#
4g#
=86
8r
16r
16ee
12ee
12dd#
12cc#
2dd#
=87
8r
16r
16cc#
8.dd#
16ee
2dd#
=88
12r
12ee
12ff#
12gg#
12ff#
12ee
2dd#
=89
8r
16r
16cc#
8.dd#
16ee
4ee
8.ff#
16gg#
=90
8.gg#
16aa
8.bb
16aa
4gg#
4ff#
=91
4ee
8.dd#
16cc#
2dd#
=92
8r
16r
16cc#
8.dd#
16ee
2dd#
=93
12r
12ee
12ff#
12gg#
12ff#
12ee
2dd#
=94
8r
16r
16ee
8.ff#
16gg
2ff#
=95
12r
12ff#
12gg
12aa
12gg
12ff#
2ee
=96
12r
12ff#
12gg
12aa
12gg
12ff#
4ee
8r
16r
16ee
=97
4ff#
4ee
4ff#
4ee
=98
4ff#
4ee
4dd
4ee
=99
4ee#
4ee#
4b#
4b#
=100
8g##
8a#
8b#
8a#
4a
4g
=101
4e#
4g
4a
4b#
=102
4ee#
8gg
8aa
2gg
=103
4eee
4eee
4bb
4bb
=104
8gg#
8aa
8bb
8aa
4gg#
4ff#
=105
8ee
8ff#
8gg#
8ff#
4ee
4dd#
=106
12r
12cc#
12dd#
12ee
12dd#
24r
24cc#
2cc#
=107
4cc#
4g#
4cc#
4g#
=108
12r
12cc#
12dd#
12ee
12dd#
24r
24cc#
2cc#
=109
4cc#
4g#
4cc#
4g#
=110
8r
16r
16ee
8.dd#
16cc#
2dd#
=111
8r
16r
16ee
8.dd#
16cc#
2dd#
=112
8r
16r
16eee
8.ddd#
16ccc#
2r
=113
8r
16r
16ddd#
8.ccc#
16bb
2r
=114
8r
16r
16ccc#
8.bb
16aa
2aa
=115
1gg#
=116
1gg#
=117
1gg#
==
*-
